X:1
T:The Blooming Meadows -- Jig
R:jig
B:Ryan's Mammoth Collection
N: 85 438
Z: Contributed by Ray Davies,  ray:davies99.freeserve.co.uk
M:6/8
L:1/8
K:G
v(D2.G) (G2.A) | (B2.d) cAG | (F2.D) DED | F3  FED |
DGG (G2.A) | BAG ABc | (d2.B) cAF | G3  G,2 z :|
|:v(g2.d) def | (g2.a) bag | (f2.d) d"4"ed | (f2.g) afd |
(g2.d) def | (g2.a) bag | fed cBA | G3  G,2 z :|
